X:3460
T:Cosair, The
M:4/4
L:1/8
C:Matt Seattle
R:hornpipe
D:Nomos: I Won't Be Afriad Any More
Z:Devin McCabe
K:DMin
AddA cAGE|FEDF EA,A,G,|A,DFD EGcB|Adfa gecA|
!dedA cAGE|FEDF EA,A,G,|A,DFD EGcB|1AGEF D3B:|2AGEF DEFG|
!:A~F3 G~E3|A~d3 eccB|Adfa gbeg|fadf eccB|
!A~F3 G~E3|A~d3 eccB|Adfa gecB|1AGEF DEFG:|2AGEF D3B||


